media/img/firefox/new/icon-opensource.svg

<?xml version="1.0" encoding="UTF-8"?>
<svg width="65px" height="65px" viewBox="0 0 65 65" version="1.1" xmlns="http://www.w3.org/2000/svg" xmlns:xlink="http://www.w3.org/1999/xlink">
    <!-- Generator: Sketch 52.5 (67469) - http://www.bohemiancoding.com/sketch -->
    <title>Combined Shape</title>
    <desc>Created with Sketch.</desc>
    <defs>
        <linearGradient x1="79.9133916%" y1="9.71235782%" x2="21.8541949%" y2="77.3794122%" id="linearGradient-1">
            <stop stop-color="#00BDEB" offset="0%"></stop>
            <stop stop-color="#0093FE" offset="100%"></stop>
        </linearGradient>
    </defs>
    <g id="Designs" stroke="none" stroke-width="1" fill="none" fill-rule="evenodd">
        <g id="Linux" transform="translate(-789.000000, -541.000000)" fill="url(#linearGradient-1)">
            <path d="M821.5,606 C803.550746,606 789,591.449254 789,573.5 C789,555.550746 803.550746,541 821.5,541 C839.449254,541 854,555.550746 854,573.5 C854,591.449254 839.449254,606 821.5,606 Z M821.5,603.173913 C837.88845,603.173913 851.173913,589.88845 851.173913,573.5 C851.173913,557.11155 837.88845,543.826087 821.5,543.826087 C805.11155,543.826087 791.826087,557.11155 791.826087,573.5 C791.826087,589.88845 805.11155,603.173913 821.5,603.173913 Z M808.860225,574.913043 C809.44394,580.19341 813.260501,584.499428 818.286777,585.807969 C816.137636,582.576054 814.832452,578.836187 814.509259,574.913043 L808.860225,574.913043 Z M808.860225,572.086957 L814.505563,572.086957 C814.822375,568.182453 816.129166,564.43451 818.286327,561.192148 C813.260273,562.500829 809.443923,566.806748 808.860225,572.086957 Z M834.139775,572.086957 C833.55606,566.80659 829.739499,562.500572 824.713223,561.192031 C826.862364,564.423946 828.167548,568.163813 828.490741,572.086957 L834.139775,572.086957 Z M834.139775,574.913043 L828.494437,574.913043 C828.177625,578.817547 826.870834,582.56549 824.713673,585.807852 C829.739727,584.499171 833.556077,580.193252 834.139775,574.913043 Z M817.338266,572.086957 L825.657751,572.086957 C825.302798,568.253111 823.859315,564.600526 821.499969,561.560868 C819.131731,564.611442 817.686287,568.275475 817.338266,572.086957 Z M825.661734,574.913043 L817.342249,574.913043 C817.697202,578.746889 819.140685,582.399474 821.500031,585.439132 C823.868269,582.388558 825.313713,578.724525 825.661734,574.913043 Z M821.5,589.043478 C812.915574,589.043478 805.956522,582.084426 805.956522,573.5 C805.956522,564.915574 812.915574,557.956522 821.5,557.956522 C830.084426,557.956522 837.043478,564.915574 837.043478,573.5 C837.043478,582.084426 830.084426,589.043478 821.5,589.043478 Z" id="Combined-Shape"></path>
        </g>
    </g>
</svg>

<svg width="65" height="65" xmlns="http://www.w3.org/2000/svg"><defs><linearGradient x1="79.913%" y1="9.712%" x2="21.854%" y2="77.379%" id="a"><stop stop-color="#00BDEB" offset="0%"/><stop stop-color="#0093FE" offset="100%"/></linearGradient></defs><path d="M821.5 606c-17.95 0-32.5-14.55-32.5-32.5s14.55-32.5 32.5-32.5 32.5 14.55 32.5 32.5-14.55 32.5-32.5 32.5zm0-2.826c16.388 0 29.674-13.286 29.674-29.674 0-16.388-13.286-29.674-29.674-29.674-16.388 0-29.674 13.286-29.674 29.674 0 16.388 13.286 29.674 29.674 29.674zm-12.64-28.261c.584 5.28 4.4 9.586 9.427 10.895a23.076 23.076 0 0 1-3.778-10.895h-5.649zm0-2.826h5.646a23.034 23.034 0 0 1 3.78-10.895c-5.026 1.309-8.842 5.615-9.426 10.895zm25.28 0c-.584-5.28-4.4-9.586-9.427-10.895a23.076 23.076 0 0 1 3.778 10.895h5.649zm0 2.826h-5.646a23.034 23.034 0 0 1-3.78 10.895c5.026-1.309 8.842-5.615 9.426-10.895zm-16.802-2.826h8.32a20.207 20.207 0 0 0-4.158-10.526 20.19 20.19 0 0 0-4.162 10.526zm8.324 2.826h-8.32a20.207 20.207 0 0 0 4.158 10.526 20.19 20.19 0 0 0 4.162-10.526zm-4.162 14.13c-8.584 0-15.543-6.959-15.543-15.543s6.959-15.543 15.543-15.543 15.543 6.959 15.543 15.543-6.959 15.543-15.543 15.543z" transform="translate(-789 -541)" fill="url(#a)" fill-rule="evenodd"/></svg>
